_inc/systems/logos/amiga.svg

<svg xmlns="http://www.w3.org/2000/svg" viewBox="0 0 3840 1265.9"><path d="M1589.9 0h-169.8l-861 1252.9h190.3L1610.5 0zm-221.6 0h-169.7L337.5 1252.9h190.3L1388.9 0zM1282 1043.1h-183.9l-28.5 43.1c-8 12.8-13.8 22.3-17.5 28.4-7.4 12.2-12.6 22-15.6 29.3-7.4 13.5-11 24.8-11 33.9 0 17.7 17.9 28.7 53.9 33 16.4 2.5 24.7 9.5 24.7 21.1 0 14.1-9.7 21.1-29.2 21.1l-34.7-2.2-60.3-3.3-77.6 5.5h-24.6c-14.6 0-21.9-5.5-21.9-16.4 0-9.1 2.9-15.7 8.7-19.6 5.8-4 16.8-6.8 32.9-8.7 16.1-1.8 29.7-8.5 40.6-20.1l35.6-44.7 15.5-23.7 16.4-22.8 16.4-23.7 288.5-410.8c14.6-21.9 25-35.3 31-40.2 6.1-4.9 15.5-7.3 28.3-7.3 14 0 23.6 3.7 28.8 11s7.8 23.2 7.8 47.6l28.3 457.8q0 27.6 3.3 44.1c1.9 9.4 6.5 18 13.1 24.9 5.8 6.2 12.9 11.2 21 13.7 10.9 3.5 16.3 9.7 16.3 18.9 0 13.4-9.1 20.1-27.4 20.1l-29.2-2.7-53.8-2.7c-17 0-35.8.7-56.1 2.1-20.4 1.4-42.2 2.5-65.3 3.4h-30.1c-14 0-21-5.8-21-17.3 0-7.9 2.9-13.7 8.7-17.3 5.8-3.7 16.6-6.4 32.4-8.2s26.5-6.2 32-13.2 8.2-19 8.2-36.1v-37.4zm-3.7-45.6-8.2-211.1-142.7 211.1zm1399.6-266.6-115 400.8c-5.5 19.5-8.2 34.4-8.2 44.7 0 22.5 12.2 33.8 36.5 33.8 21.9 0 32.9 6.8 32.9 20.5 0 13.1-9.4 19.6-28.3 19.6h-52.9l-98.6-3.6q-28.35 0-42.9.9c-9.7.6-33.8 2.7-72.1 6.4h-3.7q-23.7 0-23.7-18.3c0-7.3 2.7-12.3 8.2-15.1s17.9-6.1 37.4-10c19.5-4 31.3-9.1 35.6-15.5 4.2-6.4 11.3-26.9 21-61.6l114.1-398.9c4.2-14.6 6.4-24.3 6.4-29.2 0-15.8-11.3-23.7-33.8-23.7-19.5 0-29.2-5.8-29.2-17.5 0-7 2.4-12.5 7.3-16.6s11.6-6.1 20.1-6.1h92.2c58.4 0 99.2-1.5 122.3-4.4l48.4-2.9c12.2 0 18.3 5.8 18.3 17.3 0 7.9-3.1 13.7-9.1 17.3q-9.15 5.4-33.3 9.6c-16.1 2.7-26.9 7.2-32.4 13.2-5.7 6.1-11.5 19.2-17.5 39.3" class="st18" style="fill:#fff"/><path d="M3238.4 1075.1s-19.4 68.2-28.3 98.9c-10.5 35.8-109.4 92-230 92-91.3 0-165.6-22.8-222.8-68.5-57.2-45.6-85.8-104.7-85.8-177.1 0-57.8 17.3-112.6 52-164.3s83.7-96.2 147-133.3c51.7-30.4 107.6-54.2 167.5-71.2s118.8-25.6 176.7-25.6c38.9 0 73.3 3.3 103.2 9.8 15.2 3.6 22.8 10.1 22.8 19.6 0 5.4-1.8 12.3-5.5 20.8l-22.8 69.4c-9.1 31.7-21 47.5-35.6 47.5-15.8 0-23.7-12.5-23.7-37.4l1.8-46.6q0-23.7-9.6-33.3t-32.4-9.6c-39 0-78.8 7.9-119.6 23.8-40.8 15.8-79.4 38.4-115.9 67.7-43.2 34.7-77.3 77.4-102.3 128s-37.4 103-37.4 157.3q0 84.15 43.8 133.5c29.2 32.9 69.1 49.4 119.6 49.4 15.2 0 25.7-2.3 31.5-6.8s11.1-15 16-31.4l33.8-119.1c2.4-6.7 3.6-14.3 3.6-22.7 0-13.3-2.7-22-8.2-25.9q-8.25-5.85-43.8-10.5-19.2 0-19.2-18.3c0-13.4 10.6-20.1 32-20.1l45.6.9 82.2 2.7h21.9c26.8 0 50.8-1.2 72.1-3.7h43.8c15.2 0 22.8 5.2 22.8 15.7 0 14.6-12.5 23-37.4 25.3-15.8 0-28 4.6-36.5 13.7-8.6 9.2-16.2 25.6-22.9 49.4m377-32h-183.9l-28.5 43.1c-8 12.8-13.8 22.3-17.5 28.4-7.4 12.2-12.6 22-15.6 29.3-7.4 13.5-11 24.8-11 33.9 0 17.7 17.9 28.7 53.9 33 16.4 2.5 24.7 9.5 24.7 21.1 0 14.1-9.7 21.1-29.2 21.1l-34.7-2.2-28.1-1.5c-21.4-1.2-42.9-1.1-64.3.2l-57.9 3.5c-14.6 0-21.9-5.5-21.9-16.4 0-9.1 2.9-15.7 8.7-19.6 5.8-4 16.8-6.8 32.9-8.7 16.1-1.8 17.5-8.5 28.4-20.1l35.6-44.7 15.5-23.7 16.4-22.8 16.4-23.7 288.5-410.8c14.6-21.9 25-35.3 31-40.2 6.1-4.9 15.5-7.3 28.3-7.3 14 0 23.6 3.7 28.8 11s7.8 23.2 7.8 47.6l28.3 457.8q0 46.65 9.6 61.8c6.4 10.1 18.4 16.3 36.1 18.8 17.6 2.4 26.5 9.5 26.5 21.1 0 13.4-9.1 20.1-27.4 20.1l-29.2-2.7-72.1-2.7c-17 0-35.8.7-56.1 2.1-20.4 1.4-42.2 2.5-65.3 3.4H3560c-14 0-21-5.8-21-17.3 0-7.9 2.9-13.7 8.7-17.3 5.8-3.7 16.6-6.4 32.4-8.2s26.5-6.2 32-13.2 8.2-19 8.2-36.1v-37.4zm-3.6-45.6-8.2-211.1-142.7 211.1zM2156.7 764.6l-288.5 430c-14 21.3-24.4 34.7-31 40.2-6.7 5.5-15.8 8.2-27.4 8.2-12.2 0-20.4-2.7-24.6-8.2-4.3-5.5-6.4-17.4-6.4-35.7l-14.6-435.6-92.2 251.3-14.6 49.5c-11.6 38.5-18.3 61.9-20.1 70.1s-2.7 18.8-2.7 31.6c0 14.7 3.5 24.3 10.5 28.9s23.9 9 50.7 13.3c15.2 1.8 22.8 8.5 22.8 20.2 0 14.7-9.7 22-29.2 22l-33.8-3.3-53.9-2.2-70.9 2.7q-23.7 0-23.7-18.3c0-9.9 8-17.2 24.1-21.8a53 53 0 0 0 23.7-15.1c3.2-3.5 5.8-6.4 5.8-6.4q10.05-12.3 39.3-93.6l118.7-334.1c11-32.9 16.4-53.2 16.4-61.2 0-6.7-2.9-11.6-8.7-14.6q-8.7-4.5-35.1-8.7c-17.7-2.7-26.5-9.3-26.5-19.6 0-5.5 2.4-10.3 7.3-14.6s10.6-6.4 17.3-6.4l33.8 3.7h171.5c7.3 0 11.6 1.2 12.8 3.6q2.7 4.65 2.7 22.8l14.6 373.3L2171.3 656c6.1-9.3 10.3-14.8 12.8-16.6 2.4-1.7 7.3-2.6 14.6-2.6h181.7c13.4 0 20.1 5.5 20.1 16.4 0 15.2-10.5 23.9-31.5 26s-34.1 6.4-39.3 12.7c-5.2 6.4-10.5 20.8-16 43.3l-89.5 372.8c-2.4 10.3-4.9 22.8-7.3 37.4s-3.6 24.3-3.6 29.2q0 15.45 8.7 22.8c5.8 4.9 16.6 8.5 32.4 10.9q23.7 3.6 23.7 21c0 14-10.7 21-32 21H2217c-43.2-4.9-78.5-7.3-105.9-7.3-30.4 0-56.6 1.2-78.5 3.7l-45.6 3.6q-22.8 0-22.8-19.2c0-10.3 5.5-17.3 16.4-21l15.5-2.7 11-.9 10-1.8c12.2-1.2 20.8-5.9 26-14.1s12-29.1 20.5-62.5zm-1966.4-2.8H0l332.6 484 95.2-138.4zm147.2 491.1h190.3l-95.1-138.5zm74.4-491.1H221.6l221.8 322.8 95.2-138.4zm131.5 191.4-95.1 138.5 105.9 154.1 95.2-138.4z" class="st18" style="fill:#fff"/></svg>

<?xml version="1.0" encoding="utf-8"?>
<svg version="1.1" viewBox="0 0 3840 1265.9" xmlns="http://www.w3.org/2000/svg">
  <polygon class="st18" points="1589.9 0 1420.1 0 559.1 1252.9 728.8 1252.9 749.4 1252.9 1610.5 0" style="fill: rgb(255, 255, 255);"/>
  <polygon class="st18" points="1368.3 0 1198.6 0 337.5 1252.9 507.2 1252.9 527.8 1252.9 527.8 1252.9 1388.9 0" style="fill: rgb(255, 255, 255);"/>
  <path class="st18" d="M 1282 1043.1 L 1098.1 1043.1 L 1069.6 1086.2 C 1061.6 1099 1055.8 1108.5 1052.1 1114.6 C 1044.7 1126.8 1039.5 1136.6 1036.5 1143.9 C 1029.1 1157.4 1025.5 1168.7 1025.5 1177.8 C 1025.5 1195.5 1043.4 1206.5 1079.4 1210.8 C 1095.8 1213.3 1104.1 1220.3 1104.1 1231.9 C 1104.1 1246 1094.4 1253 1074.9 1253 L 1040.2 1250.8 L 979.9 1247.5 L 902.3 1253 L 877.7 1253 C 863.1 1253 855.8 1247.5 855.8 1236.6 C 855.8 1227.5 858.7 1220.9 864.5 1217 C 870.3 1213 881.3 1210.2 897.4 1208.3 C 913.5 1206.5 927.1 1199.8 938 1188.2 L 973.6 1143.5 L 989.1 1119.8 L 1005.5 1097 L 1021.9 1073.3 L 1310.4 662.5 C 1325 640.6 1335.4 627.2 1341.4 622.3 C 1347.5 617.4 1356.9 615 1369.7 615 C 1383.7 615 1393.3 618.7 1398.5 626 C 1403.7 633.3 1406.3 649.2 1406.3 673.6 L 1434.6 1131.4 C 1434.6 1149.8 1435.7 1164.5 1437.9 1175.5 C 1439.8 1184.9 1444.4 1193.5 1451 1200.4 L 1451 1200.4 C 1456.8 1206.6 1463.9 1211.6 1472 1214.1 C 1482.9 1217.6 1488.3 1223.8 1488.3 1233 C 1488.3 1246.4 1479.2 1253.1 1460.9 1253.1 L 1431.7 1250.4 L 1377.9 1247.7 C 1360.9 1247.7 1342.1 1248.4 1321.8 1249.8 C 1301.4 1251.2 1279.6 1252.3 1256.5 1253.2 L 1226.4 1253.2 C 1212.4 1253.2 1205.4 1247.4 1205.4 1235.9 C 1205.4 1228 1208.3 1222.2 1214.1 1218.6 C 1219.9 1214.9 1230.7 1212.2 1246.5 1210.4 C 1262.3 1208.6 1273 1204.2 1278.5 1197.2 C 1284 1190.2 1286.7 1178.2 1286.7 1161.1 L 1286.7 1123.7 L 1282 1043.1 Z M 1278.3 997.5 L 1270.1 786.4 L 1127.4 997.5 L 1278.3 997.5 Z" style="fill: rgb(255, 255, 255);"/>
  <path class="st18" d="M 2677.9 730.9 L 2562.9 1131.7 C 2557.4 1151.2 2554.7 1166.1 2554.7 1176.4 C 2554.7 1198.9 2566.9 1210.2 2591.2 1210.2 C 2613.1 1210.2 2624.1 1217 2624.1 1230.7 C 2624.1 1243.8 2614.7 1250.3 2595.8 1250.3 L 2542.9 1250.3 L 2444.3 1246.7 C 2425.4 1246.7 2411.1 1247 2401.4 1247.6 C 2391.7 1248.2 2367.6 1250.3 2329.3 1254 L 2325.6 1254 C 2309.8 1254 2301.9 1247.9 2301.9 1235.7 C 2301.9 1228.4 2304.6 1223.4 2310.1 1220.6 C 2315.6 1217.8 2328 1214.5 2347.5 1210.6 C 2367 1206.6 2378.8 1201.5 2383.1 1195.1 C 2387.3 1188.7 2394.4 1168.2 2404.1 1133.5 L 2518.2 734.6 C 2522.4 720 2524.6 710.3 2524.6 705.4 C 2524.6 689.6 2513.3 681.7 2490.8 681.7 C 2471.3 681.7 2461.6 675.9 2461.6 664.2 C 2461.6 657.2 2464 651.7 2468.9 647.6 C 2473.8 643.5 2480.5 641.5 2489 641.5 L 2531 641.5 C 2533.4 641.5 2540.4 641.5 2552 641.5 C 2563.6 641.5 2573.3 641.5 2581.2 641.5 C 2639.6 641.5 2680.4 640 2703.5 637.1 L 2751.9 634.2 C 2764.1 634.2 2770.2 640 2770.2 651.5 C 2770.2 659.4 2767.1 665.2 2761.1 668.8 C 2755 672.4 2743.9 675.6 2727.8 678.4 C 2711.7 681.1 2700.9 685.6 2695.4 691.6 C 2689.7 697.7 2683.9 710.8 2677.9 730.9 Z" style="fill: rgb(255, 255, 255);"/>
  <path class="st18" d="M 3238.4 1075.1 C 3238.4 1075.1 3219 1143.3 3210.1 1174 C 3199.6 1209.8 3100.7 1266 2980.1 1266 C 2888.8 1266 2814.5 1243.2 2757.3 1197.5 C 2700.1 1151.9 2671.5 1092.8 2671.5 1020.4 C 2671.5 962.6 2688.8 907.8 2723.5 856.1 C 2758.2 804.4 2807.2 759.9 2870.5 722.8 C 2922.2 692.4 2978.1 668.6 3038 651.6 C 3097.9 634.6 3156.8 626 3214.7 626 C 3253.6 626 3288 629.3 3317.9 635.8 C 3333.1 639.4 3340.7 645.9 3340.7 655.4 C 3340.7 660.8 3338.9 667.7 3335.2 676.2 L 3312.4 745.6 C 3303.3 777.3 3291.4 793.1 3276.8 793.1 C 3261 793.1 3253.1 780.6 3253.1 755.7 L 3254.9 709.1 C 3254.9 693.3 3251.7 682.2 3245.3 675.8 C 3238.9 669.4 3228.1 666.2 3212.9 666.2 C 3173.9 666.2 3134.1 674.1 3093.3 690 C 3052.5 705.8 3013.9 728.4 2977.4 757.7 C 2934.2 792.4 2900.1 835.1 2875.1 885.7 C 2850.1 936.3 2837.7 988.7 2837.7 1043 C 2837.7 1099.1 2852.3 1143.6 2881.5 1176.5 C 2910.7 1209.4 2950.6 1225.9 3001.1 1225.9 C 3016.3 1225.9 3026.8 1223.6 3032.6 1219.1 C 3038.4 1214.6 3043.7 1204.1 3048.6 1187.7 L 3082.4 1068.6 C 3084.8 1061.9 3086 1054.3 3086 1045.9 C 3086 1032.6 3083.3 1023.9 3077.8 1020 C 3072.3 1016.1 3057.7 1012.6 3034 1009.5 C 3021.2 1009.5 3014.8 1003.4 3014.8 991.2 C 3014.8 977.8 3025.4 971.1 3046.8 971.1 L 3092.4 972 L 3174.6 974.7 C 3180.1 974.7 3184 974.7 3186.5 974.7 C 3191.4 974.7 3194.7 974.7 3196.5 974.7 C 3223.3 974.7 3247.3 973.5 3268.6 971 L 3312.4 971 C 3327.6 971 3335.2 976.2 3335.2 986.7 C 3335.2 1001.3 3322.7 1009.7 3297.8 1012 C 3282 1012 3269.8 1016.6 3261.3 1025.7 C 3252.7 1034.9 3245.1 1051.3 3238.4 1075.1 Z" style="fill: rgb(255, 255, 255);"/>
  <path class="st18" d="M 3615.4 1043.1 L 3431.5 1043.1 L 3403 1086.2 C 3395 1099 3389.2 1108.5 3385.5 1114.6 C 3378.1 1126.8 3372.9 1136.6 3369.9 1143.9 C 3362.5 1157.4 3358.9 1168.7 3358.9 1177.8 C 3358.9 1195.5 3376.8 1206.5 3412.8 1210.8 C 3429.2 1213.3 3437.5 1220.3 3437.5 1231.9 C 3437.5 1246 3427.8 1253 3408.3 1253 L 3373.6 1250.8 L 3345.5 1249.3 C 3324.1 1248.1 3302.6 1248.2 3281.2 1249.5 L 3223.3 1253 C 3208.7 1253 3201.4 1247.5 3201.4 1236.6 C 3201.4 1227.5 3204.3 1220.9 3210.1 1217 C 3215.9 1213 3226.9 1210.2 3243 1208.3 C 3259.1 1206.5 3260.5 1199.8 3271.4 1188.2 L 3307 1143.5 L 3322.5 1119.8 L 3338.9 1097 L 3355.3 1073.3 L 3643.8 662.5 C 3658.4 640.6 3668.8 627.2 3674.8 622.3 C 3680.9 617.4 3690.3 615 3703.1 615 C 3717.1 615 3726.7 618.7 3731.9 626 C 3737.1 633.3 3739.7 649.2 3739.7 673.6 L 3768 1131.4 C 3768 1162.5 3771.2 1183.1 3777.6 1193.2 C 3784 1203.3 3796 1209.5 3813.7 1212 C 3831.3 1214.4 3840.2 1221.5 3840.2 1233.1 C 3840.2 1246.5 3831.1 1253.2 3812.8 1253.2 L 3783.6 1250.5 L 3711.5 1247.8 C 3694.5 1247.8 3675.7 1248.5 3655.4 1249.9 C 3635 1251.3 3613.2 1252.4 3590.1 1253.3 L 3560 1253.3 C 3546 1253.3 3539 1247.5 3539 1236 C 3539 1228.1 3541.9 1222.3 3547.7 1218.7 C 3553.5 1215 3564.3 1212.3 3580.1 1210.5 C 3595.9 1208.7 3606.6 1204.3 3612.1 1197.3 C 3617.6 1190.3 3620.3 1178.3 3620.3 1161.2 L 3620.3 1123.8 L 3615.4 1043.1 Z M 3611.8 997.5 L 3603.6 786.4 L 3460.9 997.5 L 3611.8 997.5 Z" style="fill: rgb(255, 255, 255);"/>
  <path class="st18" d="M 2156.7 764.6 L 1868.2 1194.6 C 1854.2 1215.9 1843.8 1229.3 1837.2 1234.8 C 1830.5 1240.3 1821.4 1243 1809.8 1243 C 1797.6 1243 1789.4 1240.3 1785.2 1234.8 C 1780.9 1229.3 1778.8 1217.4 1778.8 1199.1 L 1764.2 763.5 L 1672 1014.8 L 1657.4 1064.3 C 1645.8 1102.8 1639.1 1126.2 1637.3 1134.4 C 1635.5 1142.6 1634.6 1153.2 1634.6 1166 C 1634.6 1180.7 1638.1 1190.3 1645.1 1194.9 C 1652.1 1199.5 1669 1203.9 1695.8 1208.2 C 1711 1210 1718.6 1216.7 1718.6 1228.4 C 1718.6 1243.1 1708.9 1250.4 1689.4 1250.4 L 1655.6 1247.1 L 1601.7 1244.9 L 1530.8 1247.6 C 1515 1247.6 1507.1 1241.5 1507.1 1229.3 C 1507.1 1219.4 1515.1 1212.1 1531.2 1207.5 C 1540.3 1204.8 1548.5 1199.4 1554.9 1192.4 C 1558.1 1188.9 1560.7 1186 1560.7 1186 C 1567.4 1177.8 1580.5 1146.6 1600 1092.4 L 1718.7 758.3 C 1729.7 725.4 1735.1 705.1 1735.1 697.1 C 1735.1 690.4 1732.2 685.5 1726.4 682.5 C 1720.6 679.5 1708.9 676.6 1691.3 673.8 C 1673.6 671.1 1664.8 664.5 1664.8 654.2 C 1664.8 648.7 1667.2 643.9 1672.1 639.6 C 1677 635.3 1682.7 633.2 1689.4 633.2 L 1723.2 636.9 L 1768.8 636.9 L 1814.4 636.9 L 1878.3 636.9 L 1894.7 636.9 C 1902 636.9 1906.3 638.1 1907.5 640.5 C 1909.3 643.6 1910.2 651.2 1910.2 663.3 L 1924.8 1036.6 L 2171.3 656 C 2177.4 646.7 2181.6 641.2 2184.1 639.4 C 2186.5 637.7 2191.4 636.8 2198.7 636.8 L 2207.8 636.8 C 2218.8 636.8 2230.3 636.8 2242.5 636.8 C 2254.7 636.8 2268.1 636.8 2282.7 636.8 L 2351.2 636.8 L 2380.4 636.8 C 2393.8 636.8 2400.5 642.3 2400.5 653.2 C 2400.5 668.4 2390 677.1 2369 679.2 C 2348 681.3 2334.9 685.6 2329.7 691.9 C 2324.5 698.3 2319.2 712.7 2313.7 735.2 L 2224.2 1108 C 2221.8 1118.3 2219.3 1130.8 2216.9 1145.4 C 2214.5 1160 2213.3 1169.7 2213.3 1174.6 C 2213.3 1184.9 2216.2 1192.5 2222 1197.4 C 2227.8 1202.3 2238.6 1205.9 2254.4 1208.3 C 2270.2 1210.7 2278.1 1217.7 2278.1 1229.3 C 2278.1 1243.3 2267.4 1250.3 2246.1 1250.3 L 2217 1250.3 C 2173.8 1245.4 2138.5 1243 2111.1 1243 C 2080.7 1243 2054.5 1244.2 2032.6 1246.7 L 1987 1250.3 C 1971.8 1250.3 1964.2 1243.9 1964.2 1231.1 C 1964.2 1220.8 1969.7 1213.8 1980.6 1210.1 L 1996.1 1207.4 L 2007.1 1206.5 L 2017.1 1204.7 C 2029.3 1203.5 2037.9 1198.8 2043.1 1190.6 C 2048.3 1182.4 2055.1 1161.5 2063.6 1128.1 L 2156.7 764.6 Z" style="fill: rgb(255, 255, 255);"/>
  <polygon class="st18" points="190.3 761.8 190.3 761.8 169.7 761.8 0 761.8 332.6 1245.8 427.8 1107.4" style="fill: rgb(255, 255, 255);"/>
  <polygon class="st18" points="337.5 1252.9 507.2 1252.9 527.8 1252.9 432.7 1114.4" style="fill: rgb(255, 255, 255);"/>
  <polygon class="st18" points="411.9 761.8 391.3 761.8 221.6 761.8 443.4 1084.6 538.6 946.2" style="fill: rgb(255, 255, 255);"/>
  <polygon class="st18" points="543.4 953.2 448.3 1091.7 554.2 1245.8 649.4 1107.4" style="fill: rgb(255, 255, 255);"/>
</svg>
